X: 1
T: Cock o' the North
C: Trad
R: Jig
M:6/8
L: 1/8
K:G
Z: ABC transcription by Verge Roller
r: 32
|: d | "G" B2 B BAG | Bcd "C" e2 d | "G" B2 B BAG | "D" A3-A2 d |
"G" B2 B BAG | Bcd "C" e2 d | "G" B2 B "D" ABA | "G" G3-G2 :|
|: d | "G" g2 d "C" e2 d | "G" g2 d "C" e2 d | "G" B2 B BAG | "D" A3-A2 d |
"G" g2 d "C" e2 d | "G" g2 d "C" e2 d | "G" B2 B "D" ABA | "G" G3-G2 :|
